Nordic-green/64x64/places/folder-nordic-green-visiting.svg

<?xml version="1.0" encoding="UTF-8" standalone="no"?>
<!-- Generator: Gravit.io -->

<svg
   xmlns:dc="http://purl.org/dc/elements/1.1/"
   xmlns:cc="http://creativecommons.org/ns#"
   xmlns:rdf="http://www.w3.org/1999/02/22-rdf-syntax-ns#"
   xmlns:svg="http://www.w3.org/2000/svg"
   xmlns="http://www.w3.org/2000/svg"
   xmlns:sodipodi="http://sodipodi.sourceforge.net/DTD/sodipodi-0.dtd"
   xmlns:inkscape="http://www.inkscape.org/namespaces/inkscape"
   style="isolation:isolate"
   viewBox="0 0 64 64"
   width="64"
   height="64"
   version="1.1"
   id="svg23"
   sodipodi:docname="folder-nordic-visiting.svg"
   inkscape:version="0.92.4 5da689c313, 2019-01-14">
  <metadata
     id="metadata27">
    <rdf:RDF>
      <cc:Work
         rdf:about="">
        <dc:format>image/svg+xml</dc:format>
        <dc:type
           rdf:resource="http://purl.org/dc/dcmitype/StillImage" />
      </cc:Work>
    </rdf:RDF>
  </metadata>
  <sodipodi:namedview
     pagecolor="#ffffff"
     bordercolor="#666666"
     borderopacity="1"
     objecttolerance="10"
     gridtolerance="10"
     guidetolerance="10"
     inkscape:pageopacity="0"
     inkscape:pageshadow="2"
     inkscape:window-width="833"
     inkscape:window-height="663"
     id="namedview25"
     showgrid="false"
     inkscape:zoom="4.4110017"
     inkscape:cx="22.028287"
     inkscape:cy="18.10205"
     inkscape:window-x="463"
     inkscape:window-y="171"
     inkscape:window-maximized="0"
     inkscape:current-layer="svg23"
     inkscape:snap-global="false" />
  <defs
     id="defs5">
    <clipPath
       clipPathUnits="userSpaceOnUse"
       id="clipPath833">
      <rect
         style="fill:none"
         y="0"
         x="0"
         width="48"
         height="48"
         id="rect835" />
    </clipPath>
  </defs>
  <g
     clip-path="url(#clipPath833)"
     id="g21"
     transform="matrix(1.333343,0,0,1.333343,0.0022143,-0.0017855)">
    <linearGradient
       id="_lgradient_34"
       x1="-0.046328004"
       y1="0.15974073"
       x2="0.85220069"
       y2="0.71023709"
       gradientTransform="matrix(45,0,0,30.763,1.229,15.445)"
       gradientUnits="userSpaceOnUse">
      <stop
         offset="3.0434782608695654%"
         stop-opacity="1"
         style="stop-color:#a3be8c"
         id="stop7" />
      <stop
         offset="98.26086956521739%"
         stop-opacity="1"
         style="stop-color:#a3be8c"
         id="stop9" />
    </linearGradient>
    <path
       d="m 1.545,46.208 44.378,-0.01 c 0.169,0 0.306,-0.137 0.306,-0.306 v -30.12 c 0,-0.169 -0.137,-0.306 -0.306,-0.307 l -25.816,-0.02 -4.221,3.206 c -0.068,0.051 -0.191,0.092 -0.276,0.092 L 1.229,18.688 1.238,45.902 c 0,0.169 0.138,0.306 0.307,0.306 z"
       stroke-miterlimit="3"
       id="path12"
       inkscape:connector-curvature="0"
       style="vector-effect:non-scaling-stroke;fill:url(#_lgradient_34);stroke:#72a046;stroke-width:1;stroke-linecap:square;stroke-linejoin:miter;stroke-miterlimit:3" />
    <linearGradient
       id="_lgradient_35"
       x1="0"
       y1="0.5"
       x2="1"
       y2="0.5"
       gradientTransform="matrix(18.873,0,0,6.535,1.243,12.208)"
       gradientUnits="userSpaceOnUse">
      <stop
         offset="3.0434782608695654%"
         stop-opacity="1"
         style="stop-color:#a3be8c"
         id="stop14" />
      <stop
         offset="98.26086956521739%"
         stop-opacity="1"
         style="stop-color:#a3be8c"
         id="stop16" />
    </linearGradient>
    <path
       d="M 20.116,15.456 15.887,12.3 C 15.819,12.249 15.695,12.208 15.61,12.208 H 1.554 c -0.169,0 -0.307,0.138 -0.307,0.307 l -0.004,6.168 14.557,0.06 z"
       stroke-miterlimit="3"
       id="path19"
       inkscape:connector-curvature="0"
       style="vector-effect:non-scaling-stroke;fill:url(#_lgradient_35);stroke:#72a046;stroke-width:1;stroke-linecap:square;stroke-linejoin:miter;stroke-miterlimit:3" />
    <path
       inkscape:connector-curvature="0"
       style="fill:#466b46;stroke-width:1.18312824"
       d="M 1.2337872,18.619005 V 19.35612 L 46.251484,45.348323 46.225876,39.577387 10.180225,18.685082 Z M 17.017645,17.773917 46.22588,34.647517 46.27661,28.890138 23.164323,15.445385 c -3.788456,-0.0509 -2.410442,-0.598094 -6.146678,2.328532 z M 31.371101,15.445385 46.22588,23.960267 V 18.101649 L 41.626908,15.445385 Z M 1.2337872,24.08351 v 5.909239 L 29.319702,46.173426 h 10.256991 z m 0,10.63663 v 5.909237 l 9.6233308,5.544049 H 21.11411 Z"
       id="path14"
       sodipodi:nodetypes="cccccccccccccccccccccccccc" />
  </g>
</svg>

<svg xmlns="http://www.w3.org/2000/svg" style="isolation:isolate" width="64" height="64"><defs><clipPath clipPathUnits="userSpaceOnUse" id="a"><path fill="none" d="M0 0h48v48H0z"/></clipPath></defs><g clip-path="url(#a)" transform="matrix(1.33334 0 0 1.33334 .002 -.002)"><linearGradient id="b" x1="-.046" y1=".16" x2=".852" y2=".71" gradientTransform="matrix(45 0 0 30.763 1.229 15.445)" gradientUnits="userSpaceOnUse"><stop offset="3.043%" stop-color="#a3be8c"/><stop offset="98.261%" stop-color="#a3be8c"/></linearGradient><path d="M1.545 46.208l44.378-.01a.306.306 0 0 0 .306-.306v-30.12a.307.307 0 0 0-.306-.307l-25.816-.02-4.221 3.206a.535.535 0 0 1-.276.092l-14.381-.055.009 27.214c0 .169.138.306.307.306z" stroke-miterlimit="3" vector-effect="non-scaling-stroke" fill="url(#b)" stroke="#72a046" stroke-linecap="square"/><linearGradient id="c" x1="0" y1=".5" x2="1" y2=".5" gradientTransform="matrix(18.873 0 0 6.535 1.243 12.208)" gradientUnits="userSpaceOnUse"><stop offset="3.043%" stop-color="#a3be8c"/><stop offset="98.261%" stop-color="#a3be8c"/></linearGradient><path d="M20.116 15.456L15.887 12.3a.538.538 0 0 0-.277-.092H1.554a.308.308 0 0 0-.307.307l-.004 6.168 14.557.06z" stroke-miterlimit="3" vector-effect="non-scaling-stroke" fill="url(#c)" stroke="#72a046" stroke-linecap="square"/><path d="M1.234 18.619v.737L46.25 45.348l-.025-5.77L10.18 18.684zm15.784-.845l29.208 16.874.05-5.758-23.112-13.445c-3.788-.05-2.41-.598-6.146 2.329zm14.353-2.329l14.855 8.515v-5.858l-4.6-2.657zM1.234 24.084v5.909l28.086 16.18h10.257zm0 10.636v5.91l9.623 5.543h10.257z" fill="#466b46"/></g></svg>
